X: 35163
T: Ronnie Cooper
R: reel
M: 4/4
K: Dmajor
|:dD (3DDD ADFA|gfed cded|BE (3EEE gfed|cdec Agfe|
dDFA BcdB|gfed cdeg|fgaf gfed|ceag fd d2:|
|:afdf afba|gece gfga|fdAd fgaf|gece abga|
(3fgf ef dAFA|BG (3GFG EFGE|FA (3ABA GEed|cAGE FD D2:|

